glitch-avatars-svg/base_avatar/Avatar.fla/placeholder symbols 3/Avatar_backArmLowerRight3.svg

<?xml version="1.0" encoding="UTF-8" standalone="no"?>
<!-- Generator: flash2svg, http://dissentgraphics.com/tools/flash2svg -->

<svg
   xmlns:dc="http://purl.org/dc/elements/1.1/"
   xmlns:cc="http://creativecommons.org/ns#"
   xmlns:rdf="http://www.w3.org/1999/02/22-rdf-syntax-ns#"
   xmlns:svg="http://www.w3.org/2000/svg"
   xmlns="http://www.w3.org/2000/svg"
   xmlns:sodipodi="http://sodipodi.sourceforge.net/DTD/sodipodi-0.dtd"
   xmlns:inkscape="http://www.inkscape.org/namespaces/inkscape"
   id="Avatar"
   image-rendering="auto"
   version="1.1"
   x="0px"
   y="0px"
   width="10.363884"
   height="12.356371"
   viewBox="0 0 10.363884 12.356371"
   inkscape:version="0.48.4 r9939"
   sodipodi:docname="Avatar_backArmLowerRight3.svg">
  <metadata
     id="metadata3017">
    <rdf:RDF>
      <cc:Work
         rdf:about="">
        <dc:format>image/svg+xml</dc:format>
        <dc:type
           rdf:resource="http://purl.org/dc/dcmitype/StillImage" />
      </cc:Work>
    </rdf:RDF>
  </metadata>
  <sodipodi:namedview
     pagecolor="#ffffff"
     bordercolor="#666666"
     borderopacity="1"
     objecttolerance="10"
     gridtolerance="10"
     guidetolerance="10"
     inkscape:pageopacity="0"
     inkscape:pageshadow="2"
     inkscape:window-width="640"
     inkscape:window-height="480"
     id="namedview3015"
     showgrid="false"
     fit-margin-top="0"
     fit-margin-left="0"
     fit-margin-right="0"
     fit-margin-bottom="0"
     inkscape:zoom="1.8730159"
     inkscape:cx="37.054508"
     inkscape:cy="-60.133347"
     inkscape:window-x="47"
     inkscape:window-y="66"
     inkscape:window-maximized="0"
     inkscape:current-layer="Avatar" />
  <defs
     id="defs2999">
    <radialGradient
       gradientUnits="userSpaceOnUse"
       color-interpolation="sRGB"
       r="9.171833"
       cx="0.80000001"
       cy="-6.1989999"
       fx="0.80000001"
       fy="-6.1989999"
       gradientTransform="matrix(-0.54251099,0.84075928,-0.91767883,-0.60728455,-4.399,-10.549)"
       id="radialGradient">
      <stop
         stop-color="#FFF"
         stop-opacity="1"
         offset="0"
         id="stop3002" />
      <stop
         stop-color="#FFF"
         stop-opacity="0.40784313725490196"
         offset="1"
         id="stop3004" />
    </radialGradient>
    <radialGradient
       gradientUnits="userSpaceOnUse"
       color-interpolation="sRGB"
       r="9.1780005"
       cx="-3.549"
       cy="-16.702"
       fx="-3.549"
       fy="-16.702"
       gradientTransform="matrix(-0.542,0.84,-0.917,-0.607,-16.249,-13.199)"
       id="radialGradient1">
      <stop
         stop-color="#FFF"
         stop-opacity="1"
         offset="0"
         id="stop3007" />
      <stop
         stop-color="#FFF"
         stop-opacity="0.40784313725490196"
         offset="1"
         id="stop3009" />
    </radialGradient>
  </defs>
  <g
     id="backArmLowerRight4"
     overflow="visible"
     style="overflow:visible"
     transform="translate(3.0545085,10.106371)">
    <g
       id="backArmLowerRight3_0">
      <g
         id="element">
        <path
           id="path"
           d="m 5.1,-9.5 0,-0.05 -0.1,0 c -0.8,-0.35 -1.4,-0.6 -1.95,-0.55 -1.15,-0.05 -2,0.8 -2.65,2.3 -0.45,1 -1,1.95 -1.65,2.55 -0.75,0.75 -1.25,1.4 -1.4,1.9 -0.2,0.1 -0.35,0.4 -0.35,0.75 l 0.05,0.1 c -0.1,0.5 -0.15,1.1 -0.05,1.65 0,0.35 0.15,0.65 0.35,1.1 0.3,0.95 0.85,1.5 1.55,1.55 0.75,0.15 1.35,0.3 1.8,0.3 l 0.05,0 0.05,0.15 0.05,0 C 1.1,2.25 1.25,2.2 1.4,2.05 L 2,1.6 C 2.8,0.85 3.5,0.15 4.15,-0.5 4.55,-1 5.05,-1.6 5.7,-2.55 l 0.15,0 -0.1,-0.3 1.1,-1.75 C 7.2,-5.45 7.35,-6.15 7.3,-6.8 7.15,-7.2 7.05,-7.6 6.75,-7.95 l 0,-0.1 C 6.5,-8.6 5.9,-9.1 5.1,-9.5 z m 0.2,2.05 -0.65,-0.4 0.4,-1.35 c 0.6,0.25 1.15,0.75 1.4,1.3 C 6.5,-7.55 6.4,-7.05 6.25,-6.4 5.9,-6.95 5.55,-7.2 5.3,-7.45 z M 4.8,-9.35 4.35,-7.9 C 3.45,-8.35 2.65,-8.55 1.9,-8.5 2.05,-9 2.4,-9.3 2.7,-9.5 L 3.05,-9.8 C 3.5,-9.85 4.1,-9.65 4.8,-9.35 z m -3.45,1.4 c -0.2,0.55 -0.5,1.1 -0.8,1.75 l -0.6,-0.05 0.8,-1.65 0.65,-0.15 -0.05,0.1 z m 0.4,-0.25 c 0.75,-0.15 1.55,0.05 2.6,0.5 -0.3,0.5 -0.6,1 -0.85,1.45 L 3.1,-5.6 C 2.25,-6 1.55,-6.2 0.85,-6.25 1.1,-6.7 1.4,-7.25 1.65,-7.9 l 0.1,-0.3 z M 0.95,-8.25 C 1.3,-9 1.8,-9.45 2.4,-9.7 2.05,-9.45 1.7,-9.05 1.55,-8.45 l -0.6,0.2 z m 3.95,4.3 -1.4,2 C 3.15,-2.35 2.75,-2.7 2.4,-3.05 l -0.2,-0.1 c 0.35,-0.9 0.7,-1.65 1,-2.1 l 0.35,0.15 c 0.6,0.3 1.05,0.7 1.35,1.15 z M 3.35,-5.5 3.75,-6.1 C 4,-6.45 4.25,-6.9 4.55,-7.55 l 0.6,0.3 C 5.5,-7.05 5.8,-6.6 6.1,-6 5.85,-5.35 5.55,-4.9 5.35,-4.6 L 5.1,-4.25 C 4.7,-4.65 4.15,-5.1 3.7,-5.3 L 3.35,-5.5 z M 2.2,-2.8 c 0.5,0.3 0.85,0.7 1.2,1.05 C 2.6,-0.75 2,0 1.55,0.4 1.35,-0.05 1.2,-0.45 0.85,-0.9 1.25,-1.25 1.5,-1.6 1.65,-1.95 l 0.4,-0.95 0.15,0.1 z m -0.8,0.75 c -0.05,0.2 -0.3,0.55 -0.75,0.9 l -0.2,-0.2 c -0.6,-0.5 -1.3,-0.95 -2.05,-1.1 0.1,-0.5 0.4,-0.95 0.75,-1.45 0.85,0.1 1.8,0.45 2.65,0.9 l -0.4,0.95 z m -0.95,1.1 c -0.75,0.55 -1.5,0.85 -2.05,0.9 l 0,-0.1 -0.15,0.05 -0.1,-0.85 C -1.9,-1.3 -1.9,-1.75 -1.7,-2.2 c 0.7,0.1 1.35,0.5 2,1.05 l 0.15,0.2 z m 3.45,0.3 C 3.25,0.15 2.55,0.8 1.8,1.45 L 1.6,1.55 C 1.65,1.3 1.65,1 1.65,0.8 c 0.4,-0.45 1.1,-1.25 1.95,-2.25 0.15,0.25 0.25,0.5 0.3,0.8 z m -0.2,-1.05 1.5,-2 c 0.15,0.25 0.25,0.55 0.3,0.8 C 5.2,-2.4 4.7,-1.75 4.1,-0.95 4.05,-1.1 3.9,-1.35 3.7,-1.7 z M 1.95,-3.15 C 1,-3.7 0.15,-4.05 -0.7,-4.15 l 0,-0.2 0.35,-0.3 c 0.4,-0.5 0.8,-0.9 1.05,-1.35 0.6,0 1.35,0.15 2.3,0.6 -0.3,0.45 -0.7,1.15 -1.05,2.25 z M 6.6,-4.75 C 6.25,-4.2 5.95,-3.7 5.65,-3.2 5.55,-3.55 5.4,-3.8 5.3,-4 l 0.3,-0.45 c 0.25,-0.3 0.4,-0.65 0.7,-1 0.05,0.25 0.1,0.45 0.15,0.7 l 0.15,0 z M 6.4,-6 6.8,-7.5 C 7.05,-6.8 6.95,-6 6.6,-5.05 6.6,-5.4 6.5,-5.75 6.4,-6 z M 1.1,0.95 1.35,0.95 1.25,1.9 0.65,1.85 C 0.6,1.85 0.3,1.85 -0.3,1.7 L -0.25,1.6 C -0.85,1.35 -1.25,1 -1.5,0.55 -0.95,0.9 -0.35,1.15 0.3,1.2 0.55,1.15 0.8,1.1 1.1,0.95 z M 1,0.8 C 0.3,1.05 -0.55,0.85 -1.5,0.25 -0.8,0.15 -0.05,-0.2 0.6,-0.8 1,-0.35 1.15,0.2 1.25,0.7 L 1,0.8 z M -0.35,-5.9 0.25,-6 c -0.2,0.45 -0.5,0.75 -0.8,1.15 l -0.45,0.6 -0.65,-0.05 1.3,-1.6 z m -1.6,1.9 0.75,-0.05 -0.6,1.5 c -0.3,-0.05 -0.55,-0.05 -0.85,-0.1 0.1,-0.3 0.2,-0.55 0.25,-0.6 L -1.95,-4 z m -0.75,1.7 c 0.15,0 0.4,0 0.75,0.05 -0.2,0.5 -0.2,0.95 -0.15,1.3 l 0.15,0.8 C -2.4,-0.4 -2.7,-0.8 -2.75,-1.15 -2.85,-1.6 -2.8,-2 -2.7,-2.3 z M -0.85,1.55 -1.2,1.5 C -1.55,1.4 -1.85,1.2 -2.15,0.8 l -0.1,-0.15 0.35,-0.3 c 0.1,0.45 0.45,0.85 1.05,1.2 z m -1.6,-1.2 -0.15,-0.8 0.45,0.6 -0.3,0.2 z"
           inkscape:connector-curvature="0"
           style="fill:url(#radialGradient1)" />
      </g>
    </g>
  </g>
</svg>

<?xml version="1.0" encoding="utf-8"?>
<!-- Generator: flash2svg, http://dissentgraphics.com/tools/flash2svg -->
<svg xmlns:xlink="http://www.w3.org/1999/xlink" id="Avatar" image-rendering="auto" baseProfile="basic" version="1.1" x="0px" y="0px" width="68" height="126" xmlns="http://www.w3.org/2000/svg" viewBox="0 0 68 126">
  <defs>
    <radialGradient gradientUnits="userSpaceOnUse" color-interpolation="sRGB" r="9.171833166825987" cx="0.8" cy="-6.199" fx="0.8000000000000007" fy="-6.199" gradientTransform="matrix(-0.542510986328125 0.84075927734375 -0.9176788330078125 -0.6072845458984375 -4.399 -10.549)" id="radialGradient">
      <stop stop-color="#FFF" stop-opacity="1" offset="0"/>
      <stop stop-color="#FFF" stop-opacity="0.40784313725490196" offset="1"/>
    </radialGradient>
    <radialGradient gradientUnits="userSpaceOnUse" color-interpolation="sRGB" r="9.178" cx="-3.549" cy="-16.702" fx="-3.549" fy="-16.702" gradientTransform="matrix(-0.542 0.84 -0.917 -0.607 -16.249 -13.199)" id="radialGradient1">
      <stop stop-color="#FFF" stop-opacity="1" offset="0"/>
      <stop stop-color="#FFF" stop-opacity="0.40784313725490196" offset="1"/>
    </radialGradient>
  </defs>
  <g id="backArmLowerRight4" overflow="visible">
    <g id="backArmLowerRight3_0">
      <g id="element">
        <path id="path" fill="url(#radialGradient1)" d="M5.1,-9.5 L5.1,-9.55 5,-9.55 C4.2,-9.9 3.6,-10.15 3.05,-10.1 1.9,-10.15 1.05,-9.3 0.4,-7.8 -0.05,-6.8 -0.6,-5.85 -1.25,-5.25 -2,-4.5 -2.5,-3.85 -2.65,-3.35 -2.85,-3.25 -3,-2.95 -3,-2.6 L-2.95,-2.5 C-3.05,-2 -3.1,-1.4 -3,-0.85 -3,-0.5 -2.85,-0.2 -2.65,0.25 -2.35,1.2 -1.8,1.75 -1.1,1.8 -0.35,1.95 0.25,2.1 0.7,2.1 L0.75,2.1 0.8,2.25 0.85,2.25 C1.1,2.25 1.25,2.2 1.4,2.05 L2,1.6 C2.8,0.85 3.5,0.15 4.15,-0.5 4.55,-1 5.05,-1.6 5.7,-2.55 L5.85,-2.55 5.75,-2.85 6.85,-4.6 C7.2,-5.45 7.35,-6.15 7.3,-6.8 7.15,-7.2 7.05,-7.6 6.75,-7.95 L6.75,-8.05 C6.5,-8.6 5.9,-9.1 5.1,-9.5z M5.3,-7.45 L4.65,-7.85 5.05,-9.2 C5.65,-8.95 6.2,-8.45 6.45,-7.9 6.5,-7.55 6.4,-7.05 6.25,-6.4 5.9,-6.95 5.55,-7.2 5.3,-7.45z M4.8,-9.35 L4.35,-7.9 C3.45,-8.35 2.65,-8.55 1.9,-8.5 2.05,-9 2.4,-9.3 2.7,-9.5 L3.05,-9.8 C3.5,-9.85 4.1,-9.65 4.8,-9.35z M1.35,-7.95 C1.15,-7.4 0.85,-6.85 0.55,-6.2 L-0.05,-6.25 0.75,-7.9 1.4,-8.05 1.35,-7.95z M1.75,-8.2 C2.5,-8.35 3.3,-8.15 4.35,-7.7 4.05,-7.2 3.75,-6.7 3.5,-6.25 L3.1,-5.6 C2.25,-6 1.55,-6.2 0.85,-6.25 1.1,-6.7 1.4,-7.25 1.65,-7.9 L1.75,-8.2z M0.95,-8.25 C1.3,-9 1.8,-9.45 2.4,-9.7 2.05,-9.45 1.7,-9.05 1.55,-8.45 L0.95,-8.25z M4.9,-3.95 L3.5,-1.95 C3.15,-2.35 2.75,-2.7 2.4,-3.05 L2.2,-3.15 C2.55,-4.05 2.9,-4.8 3.2,-5.25 L3.55,-5.1 C4.15,-4.8 4.6,-4.4 4.9,-3.95z M3.35,-5.5 L3.75,-6.1 C4,-6.45 4.25,-6.9 4.55,-7.55 L5.15,-7.25 C5.5,-7.05 5.8,-6.6 6.1,-6 5.85,-5.35 5.55,-4.9 5.35,-4.6 L5.1,-4.25 C4.7,-4.65 4.15,-5.1 3.7,-5.3 L3.35,-5.5z M2.2,-2.8 C2.7,-2.5 3.05,-2.1 3.4,-1.75 2.6,-0.75 2,0 1.55,0.4 1.35,-0.05 1.2,-0.45 0.85,-0.9 1.25,-1.25 1.5,-1.6 1.65,-1.95 L2.05,-2.9 2.2,-2.8z M1.4,-2.05 C1.35,-1.85 1.1,-1.5 0.65,-1.15 L0.45,-1.35 C-0.15,-1.85 -0.85,-2.3 -1.6,-2.45 -1.5,-2.95 -1.2,-3.4 -0.85,-3.9 0,-3.8 0.95,-3.45 1.8,-3 L1.4,-2.05z M0.45,-0.95 C-0.3,-0.4 -1.05,-0.1 -1.6,-0.05 L-1.6,-0.15 -1.75,-0.1 -1.85,-0.95 C-1.9,-1.3 -1.9,-1.75 -1.7,-2.2 -1,-2.1 -0.35,-1.7 0.3,-1.15 L0.45,-0.95z M3.9,-0.65 C3.25,0.15 2.55,0.8 1.8,1.45 L1.6,1.55 C1.65,1.3 1.65,1 1.65,0.8 2.05,0.35 2.75,-0.45 3.6,-1.45 3.75,-1.2 3.85,-0.95 3.9,-0.65z M3.7,-1.7 L5.2,-3.7 C5.35,-3.45 5.45,-3.15 5.5,-2.9 5.2,-2.4 4.7,-1.75 4.1,-0.95 4.05,-1.1 3.9,-1.35 3.7,-1.7z M1.95,-3.15 C1,-3.7 0.15,-4.05 -0.7,-4.15 L-0.7,-4.35 -0.35,-4.65 C0.05,-5.15 0.45,-5.55 0.7,-6 1.3,-6 2.05,-5.85 3,-5.4 2.7,-4.95 2.3,-4.25 1.95,-3.15z M6.6,-4.75 C6.25,-4.2 5.95,-3.7 5.65,-3.2 5.55,-3.55 5.4,-3.8 5.3,-4 L5.6,-4.45 C5.85,-4.75 6,-5.1 6.3,-5.45 6.35,-5.2 6.4,-5 6.45,-4.75 L6.6,-4.75z M6.4,-6 L6.8,-7.5 C7.05,-6.8 6.95,-6 6.6,-5.05 6.6,-5.4 6.5,-5.75 6.4,-6z M1.1,0.95 L1.35,0.95 1.25,1.9 0.65,1.85 C0.6,1.85 0.3,1.85 -0.3,1.7 L-0.25,1.6 C-0.85,1.35 -1.25,1 -1.5,0.55 -0.95,0.9 -0.35,1.15 0.3,1.2 0.55,1.15 0.8,1.1 1.1,0.95z M1,0.8 C0.3,1.05 -0.55,0.85 -1.5,0.25 -0.8,0.15 -0.05,-0.2 0.6,-0.8 1,-0.35 1.15,0.2 1.25,0.7 L1,0.8z M-0.35,-5.9 L0.25,-6 C0.05,-5.55 -0.25,-5.25 -0.55,-4.85 L-1,-4.25 -1.65,-4.3 -0.35,-5.9z M-1.95,-4 L-1.2,-4.05 -1.8,-2.55 C-2.1,-2.6 -2.35,-2.6 -2.65,-2.65 -2.55,-2.95 -2.45,-3.2 -2.4,-3.25 L-1.95,-4z M-2.7,-2.3 C-2.55,-2.3 -2.3,-2.3 -1.95,-2.25 -2.15,-1.75 -2.15,-1.3 -2.1,-0.95 L-1.95,-0.15 C-2.4,-0.4 -2.7,-0.8 -2.75,-1.15 -2.85,-1.6 -2.8,-2 -2.7,-2.3z M-0.85,1.55 L-1.2,1.5 C-1.55,1.4 -1.85,1.2 -2.15,0.8 L-2.25,0.65 -1.9,0.35 C-1.8,0.8 -1.45,1.2 -0.85,1.55z M-2.45,0.35 L-2.6,-0.45 -2.15,0.15 -2.45,0.35z"/>
      </g>
    </g>
  </g>
</svg>
